rospo-icon-theme-classic-common/16x16/status/package-new.svg

<svg height="16" viewBox="0 0 16 16" width="16" xmlns="http://www.w3.org/2000/svg"><path d="m7.9999998-.00000015 3.0000002 5.00000015h5l-4 5 1.5 6-5.5000002-3-5.4999998 3 1.4999999-6-3.99999985-5h4.99999995z" fill="#ffb641"/></svg>

<svg xmlns="http://www.w3.org/2000/svg" width="16" height="16" version="1.1" viewBox="0 0 16 16">
 <path style="fill:#ffb641" d="M 7.9999998,-1.5e-7 11,5 16,5 12,10 13.5,16 7.9999998,13 2.5,16 3.9999999,10 4.9999999e-8,5 5,5 Z"/>
</svg>
